X:1
T:Title
%%score { ( 1 4 5 ) | ( 2 3 ) }
L:1/8
M:4/4
K:D
V:1 treble nm="Grand Piano"
V:4 treble 
V:5 treble 
V:2 bass 
V:3 bass 
V:1
 z4 z2[Q:1/4=100] [A,DF][A,EG] | [DFA]2 [DFA]2 [DFA]2 [DFB][A,DF] | %2
 [DFA]2 [DFA]2 [DFA]2 [DFB][A,DF] | [A,CG]2 [A,CG]2 G2 AE | F2 G2 A2 F[FA] | %5
 [Fd]2 [Gd]2 [Fd]2 [Ac][GB] | [FA]2 [DF]2 [FA]2 [FA][=FB] | c2 c2 ce[Fd][DFB] | %8
[M:7/8] [CEA]2 [E^G]2 [CEA]3 |[M:1/4] A2 |[M:4/4] d6 z2 | G6 z2 | [Gc]6 z2 | A6 z2 | A4 z4 | %15
 [G,DG]2 [Dd]>[Dd] [Dd]4 | [DA]>[DA] [DA]2 [GA]2 [Ge]2 |[M:3/4] [Fd]6[K:bass] |] %18
V:2
 z4 z2 D,D, | D,2 A,,2 D,2 D,D, | D,2 A,,2 D,2 D,D, | E,2 A,,2 [E,A,C]2 [E,A,C][E,A,C] | %4
 [D,A,D]2 [E,A,C]2 [F,A,D]2 [D,A,D][D,D] | [D,A,]2 [D,B,]2 [D,A,]2 [D,B,][D,C] | %6
 [D,D]2 [D,A,]2 [D,D]2 [D,D][D,D] | [E,A,E]2 [E,A,E]2 [E,E]-[E,CE][D,B,]D, |[M:7/8] E,2 z D A,,3 | %9
[M:1/4][K:treble] G2 |[M:4/4] F6[K:bass] z2 | [C,A,]2 [A,,A,]2 C,2 [A,,A,]2 | %12
 [E,A,]2 A,,2 z G [A,,A,]2 | [D,A,]2 [A,,A,]2 [D,A,]2[K:treble] F2 | F4[K:bass] z4 | %15
 B,,2 [^A,,=F,]>[A,,F,] [A,,F,]4 | [A,,F,]>[A,,F,] [A,,F,]2 [A,,E,]2 [A,,A,]2 |[M:3/4] A,6 |] %18
V:3
 x8 | x8 | x8 | x8 | x8 | x8 | x8 | z4 .A,2 z2 |[M:7/8] z2 E,2 z z2 |[M:1/4][K:treble] x2 | %10
[M:4/4] z2[K:bass] A,,2 D,2 [A,,A,]2 | x8 | z4 E,2 z2 | x6[K:treble] x2 | %14
 z2[K:bass] D,2 D,2 D,=C, | x8 | x8 |[M:3/4] D,2 z2 z2 |] %18
V:4
 x8 | x8 | x8 | x8 | x8 | x8 | x8 | x8 |[M:7/8] z2 B, z z z2 |[M:1/4] x2 | %10
[M:4/4] z2 A,2 z c [FB]>[DF] | E2 C>B, A,2 [EG][EG] | z2 A,2 z B [EG]>[GB] | F2 F>E D2 A2 | %14
 z2 D2 [A,DF]2 [A,DF]2 | x8 | x8 |[M:3/4] z2[K:bass] A,,2 D,2 |] %18
V:5
 x8 | x8 | x8 | x8 | x8 | x8 | x8 | x8 |[M:7/8] x7 |[M:1/4] x2 |[M:4/4] z4 A,2 z2 | x8 | %12
 z4 A,2 z2 | x8 | x8 | x8 | x8 |[M:3/4] x2[K:bass] x4 |] %18

